!!!COM: Beethoven, Ludwig van
!!!CDT: 1770///-1827///
!!!OTL: Piano Sonata no. 26 in E-flat major
!!!OTP: les adieux
!!!ODE: &agrave; l'Archiduc Rodolphe
!!!ODT: 1809///-1810///
!!!OPS: 81a
!!!OMV: 1
!!!OMD: Les Adieux: Adagio
**kern	**kern	**dynam
*staff2	*staff1	*staff1/2
*Ipiano	*Ipiano	*Ipiano
*>[I,A,A1,A,A2,B]	*>[I,A,A1,A,A2,B]	*>[I,A,A1,A,A2,B]
*>norep[I,A,A2,B]	*>norep[I,A,A2,B]	*>norep[I,A,A2,B]
*>I	*>I	*>I
*Ipiano	*Ipiano	*Ipiano
*clefF4	*clefG2	*
*k[b-e-a-]	*k[b-e-a-]	*k[b-e-a-]
*E-:	*E-:	*E-:
*M2/4	*M2/4	*M2/4
*MM60	*MM60	*MM60
=1-	=1-	=1-
!	!	!LO:DY:i:t=%s espress.
2r	(4e- 4g	p
.	4B- 4f	.
=2	=2	=2
4.CC 4.C	4.G) 4.e-	.
(8C/ 8E-/	(16.e-LL	.
.	32a-JJk)	.
=3	=3	=3
8BB-) 8EnL	8gL<	.
(8BB- 8E	(16.gL	.
.	32dd-JJk)	.
8AAn) 8F	8ccL	.
8AA- 8F#J	(16.ccSssL	.
.	32ddnJJk)	.
=4	=4	=4
*^	*^	*
(<8GL	4.GG	(8.ee-L	8e-L	.
8An	.	.	8e- 8f#	.
.	.	16cck	.	.
8BnJ)	.	8bnJ)	8d 8gJ	.
8r	8r	(16ggLL<	8ryy	.
.	.	16eee-JJ)	.	.
*v	*v	*	*	*
*clefG2	*	*	*
=5	=5	=5	=5
*^	*	*	*
(8gL	4.G	(8.eee-L	8ee-L	<
8an	.	.	8ee- 8ff#	.
.	.	16cccJk	.	.
8bn	.	8bbnL	8dd 8gg)	.
8b-J)	8g	8bb-J	8dd 8ggJ	.
!!LO:LB:g=original
=6	=6	=6	=6	=6
!	!	!	!	!LO:HP:i:t=dim.
[4b-	(8f 8a-L	[4bb-	8ddL	f >
.	8e- 8g	.	8ee-J	.
*	*	*	*Xtuplet	*
8b-]	8d 8f	24bb-LL]	24ff	] >
.	.	24b-	24ryy	.
.	.	24ccJJ	24ryy	.
8r	8B-) 8dJ	24anLL	8ryy	.
.	.	24b-	.	.
.	.	24a-JJ	.	.
*v	*v	*	*	*
*clefF4	*	*	*
*	*v	*v	*
=7	=7	=7
4r	(4B- 4d- 4en 4g	p
4BBB- 4BB-	4A- 4dn 4f	.
=8	=8	=8
*	*^	*
4.CC- 4.C-	4.ryy	4.G-) 4.e-	.
8C- 8G-	16.g-LL	8e-	.
.	32cc-JJk	.	.
=9	=9	=9	=9
8D- 8G-L	8cc-L	8f-L	.
8D- 8G-J	16.b-L	8f-	.
.	32ff-JJk	.	.
8C- 8G-L	8ee-L	8e-J	.
8BB- [8G-J	16.ee-SssL	8re	.
.	32ffnJJk	.	.
=10	=10	=10	=10
*^	*	*	*
8G-L]	4AAn	8.gg-L	8ccnL	.
8F	.	.	8cc	.
.	.	16ee-k	.	.
8F	8BB-L	8ddJ	8b-	.
[8F-J	8AA-J	16.dd-SSsLL	[8b-J	.
.	.	32ee-JJk	.	.
=11	=11	=11	=11	=11
8F-XL]	4GG	8.ff-L	8b-L]	.
8E-	.	.	8b-	.
.	.	32ee-LL	.	.
.	.	32dd-JJJ	.	<
8E-	8AA-L	8cc-L	8a-	.
8G-J	8GG- 8BB-J	8b- 8ee-J	8e-J	[ >]
*v	*v	*	*	*
*	*v	*v	*
!!LO:LB:g=original
=12	=12	=12
8FF 8BB- 8F	8dn 8a- 8b- 8ddn	.
8r	8r	.
16r	16r	.
(16FF 16BB- 16FLL	(16d 16a- 16b- 16ddLL	.
16EE-) 16BB- 16E-	16e-) 16g- 16b- 16ee-	.
16EE- 16BB- 16E-JJ	16e- 16g- 16b- 16ee-JJ	.
=13	=13	=13
8DD 8BB- 8D	8f 8b- 8ff	.
8r	8r	.
16r	16r	.
*clefG2	*	*
(16f 16a-LL	16b- (16ddLL	.
16e-) 16g-	16b- 16ee-)	.
16e- 16g-JJ	16b- 16ee-JJ	.
=14	=14	=14
8d 8f	8b- 8ff	.
8r	8r	.
16r	16r	.
(16d 16fLL	16b- (16ffLL	<
16d- 16e-	16b- 16ggn	[ >
16c-) 16e-JJ	16a- 16aa-JJ)	]]
=15	=15	=15
8c- 8e-	8a- 8aa-	.
8r	8r	.
16r	16r	.
(16dn 16fLL	16b- (16ffLL	<
16d- 16e-	16b- 16gg	[ >
16cn) 16e-JJ	16a- 16aa-JJ)	]]
=16	=16	=16
8r	8r	.
!	!	!LO:DY:rj
8c 8e-	8a- 8aa-	pp
8r	8r	.
8c 8e-	8a- 8aa-	.
*clefF4	*	*
!!LO:LB:g=original
=17!|:	=17!|:	=17!|:
*>A	*>A	*>A
!!!OMD: Allegro
*M2/2	*M2/2	*M2/2
*MM220	*MM220	*MM220
*	*^	*
2.c 2.e-	2.a- 2.aa-	2.ryy	f
8Bn (8dL	(<8ddL	4g	.
8B- 8d-J)	8ggJ)	.	.
=18	=18	=18	=18
4B- 4d-	4gg	4g	.
8An (8cL	(<8ccL	4f	.
8A- 8c-J)	8ffJ)	.	.
4A- 4c-	4ff	4f	.
8G (8B-L	(<8b-L	4e-	.
8F# 8AnJ)	8ee-J)	.	.
=19	=19	=19	=19
(2.Fn 2.A-X	(2ee-	2e- 2a- 2b-	sf >
.	4a- 4b- 4dd	4d	]
!	!	!	!LO:DY:rj
4E- 4G	4b- 4ee-	4e-	p
=20	=20	=20	=20
4D 4F	4ff	4f 4b-	.
4C 4E-	4gg	4g 4b-	.
4BB-\ 4D\	4aa-	4a- 4b-	.
4BB- 4D 4F)	4bb-)	4b-	.
*	*v	*v	*
=21	=21	=21
8EE-L<	4g' 4b-' 4gg'	<
8BB-	.	.
8G	4r	.
8BB-J	.	.
8EE-L<	4b-' 4bb-'	.
8BB-	.	.
8G	4r	.
8BB-J	.	.
=22	=22	=22
*	*8va	*
*ped	*	*
8FFL<	2.bb- 2.bbb-	sf
*	*X8va	*
8BB-	.	.
8A-	.	.
8BB-J	.	.
8FFL<	.	.
8BB-	.	.
8A-	[4b- [4bb-	sfp
*Xped	*	*
8BB-J	.	.
!!LO:LB:g=original
=23	=23	=23
*ped	*	*
8GGL<	2.b-] (2.bb-]	.
8BB-	.	.
8B-	.	.
8BB-J	.	.
8GGL<	.	.
8BB-	.	.
8B-	4g 4gg	.
*Xped	*	*
8BB-J	.	.
=24	=24	=24
8AA-L<	4f 4ff	.
8BB-	.	.
8A-	4d\ 4dd\	.
8BB-J	.	.
8BBB-L<	4c- 4cc-	.
8BB-	.	.
8F	4B- 4b-)	.
8BB-J	.	.
=25	=25	=25
8EE-L<	4B-' 4b-'	.
8BB-	.	<
8G	4r	.
8BB-J	.	.
8EE-L<	4b-' 4bb-'	.
8BB-	.	.
8G	4r	.
8BB-J	.	.
=26	=26	=26
*	*8va	*
*ped	*	*
8FFL<	2.bb- 2.bbb-	f
*	*X8va	*
8BB-	.	.
8A-	.	.
8BB-J	.	.
8FFL<	.	.
8BB-	.	.
8A-	[4b- [4bb-	sfp
*Xped	*	*
8BB-J	.	.
=27	=27	=27
*ped	*	*
8GGL	2.b-] (2.bb-]	.
8E-	.	.
8B-	.	.
8E-J	.	.
8GGL	.	.
8E-	.	.
8B-	4g 4gg	.
*Xped	*	*
8E-J	.	.
=28	=28	=28
8AA-L	4en\ 4een\	.
8E-	.	.
8c	4f 4ff	.
8E-J	.	.
8AAnL	4c\ 4cc\	.
8F	.	.
8c	4e-\ 4ee-\)	.
8FJ	.	.
!!LO:LB:g=original
=29	=29	=29
4BB- 4B-	8d (8ddL<	.
.	8b-	.
(8e-L	8an	.
8dJ	8b-J	.
8cL	8a 8ccL	.
8B-	8b- 8dd	.
8An	8cc 8ee-	.
8A-J	8dd 8ffJ)	.
=30	=30	=30
8GL	2ee- 2gg	.
8F	.	.
8E-	.	.
8DJ	.	.
8E-L	(8aa-X 8cccL	.
8F	8gg 8bb-	.
8G	8ff 8aa-	.
8A-J)	8ee- 8ggJ)	.
*clefG2	*	*
=31	=31	=31
4B-	4dd 4ff	.
(8cL	4r	.
8dJ	.	.
*	*8va	*
8e-L	8aaa- (8ccccL	.
8f	8ggg 8bbb-	.
8g	8fff 8aaa-	.
8a-J)	8eee- 8gggJ	.
=32	=32	=32
(4b-/	4ddd 4fff)	.
*	*X8va	*
8a-L	8dd (8cccL	.
8gJ	8ee- 8bb-J	.
8fL	8bn 8aa-L	<
8e-)	8cc 8gg)	.
8d'	8g' 8ff'	.
8c'J	8ee-' 8ff#'J	.
*clefF4	*	*
=33	=33	=33
8Bn'L	8dd' 8gg'L	.
8An'	8dd' 8ff#' 8aan'	.
8G'	8dd' 8gg' 8bbn'	.
8Fn'J	8dd' 8gg' 8bb'J	.
8E-X'L	8ee-' 8gg' 8ccc'L	.
8D'	8ffn' 8bb' 8ddd'	.
8C'	8gg' 8ccc' 8eee-'	.
8BB-X' 8C'J	8gg 8ccc 8eeenJ	.
=34	=34	=34
4BB-' 4C'	4gg' 4ccc' 4eeen'	f
4r	4r	.
4AAn 4C	4ff' 4ccc' 4fff'	.
4r	4r	.
!!LO:LB:g=original
=35	=35	=35
*^	*^	*
[1C	(2.GG-	(2.ee-X	[1b-	sf
.	4FF)	4ff)	.	.
*v	*v	*	*	*
=36	=36	=36	=36
1EE- 1C]	1gg-z	4b-]	.
.	.	(>8b-L	.
.	.	8anJ	.
.	.	8b-L	.
.	.	8a	.
.	.	8b-	.
.	.	8aJ)	.
=37	=37	=37	=37
*^	*	*	*
[1C	(2.GG-	(2.ee-	[1b-	sf
.	4FF)	4ff)	.	.
*v	*v	*	*	*
=38	=38	=38	=38
1EEn 1C]	1ggnz	4b-]	>
.	.	(>8b-L	.
.	.	8anJ	.
.	.	8b-L	.
.	.	8a	.
.	.	8b-	.
.	.	8aJ)	]
*	*v	*v	*
=39	=39	=39
4FF 4C	4gg-'	p
4r	(8b-L<	.
.	8anJ	.
2r	8b-L<	.
.	8a	.
.	8b-	.
.	8aJ)	.
=40	=40	=40
4FF 4D	4ff'	.
4r	(8ccL	.
.	8bnJ	.
2r	8ccL	.
.	8b	.
.	8cc	.
.	8bJ)	.
!!LO:LB:g=original
=41	=41	=41
4FF 4E-	4ff'	.
4r	(8ddL	.
.	8ccJ)	.
4FF 4D	4ff'	.
4r	(8ccL	.
.	8b-XJ)	.
=42	=42	=42
4FF 4C	4ff'	.
4r	(8b-L<	.
.	8anJ)	.
4FF 4D	4ff'	.
4r	(8ccL	.
.	8b-J)	.
=43	=43	=43
4FF 4C	4gg-'	.
4r	(8b-L	.
.	8anJ	.
2r	8b-L	.
.	8a	.
.	8b-	.
.	8aJ)	.
=44	=44	=44
4FF 4D	4ff'	.
4r	(8ccL	.
.	8bnJ	.
2r	8ccL	.
.	8b	.
.	8cc	.
.	8bJ)	.
=45	=45	=45
4FF 4E-	4ff'	.
4r	(8ddL	.
.	8ccJ)	.
4FF 4D	4ff'	.
4r	(8ccL	.
.	8bnJ)	.
=46	=46	=46
4FF 4E-	4ff'	.
4r	(8ddL	.
.	8ccJ)	.
!LO:TX:a:i:t=legato	!	!
(4F	4ff	.
8GL	4cc [4ee-	.
8AnJ	.	.
!!LO:LB:g=original
=47	=47	=47
*	*^	*
8B-L	4cc 4ee-]	2f	.
8c	.	.	.
8d	4b- 4dd	.	.
8e-J	.	.	.
4f)	4an/ 4cc/	2ryy	.
*clefG2	*	*	*
(8gL	[4ccc [4eee-	.	.
8anJ	.	.	.
=48	=48	=48	=48
8b-L	4ccc] 4eee-]	2ff	.
8cc	.	.	.
8dd	4bb- 4ddd	.	.
8ee-J	.	.	.
4ff)	4ccc	4aan	.
(4ee-	([4ggg	4aa 4ccc	.
=49	=49	=49	=49
4dd)	4ggg]	4ff 4bb-	.
4dd-	2fff	4ff 4bb-	.
4cc	.	4gg 4bb-	.
4f	4eee-)	4aan 4ccc	.
=50	=50	=50	=50
*^	*	*	*
!LO:TX:a:i:t=espress.	!	!	!	!
4B-	1B-	1ddd	8dddL	.
.	.	.	8ff	.
(<2c# 2en	.	.	8gg	.
.	.	.	8ffJ	.
.	.	.	8ggL	.
.	.	.	8ff	.
4d) 4f	.	.	8gg	.
.	.	.	8ffJ	.
*v	*v	*	*	*
=51	=51	=51	=51
*^	*	*	*
*	*^	*	*	*
4ryy	4B-/	1B-	1ccc	8cccL	.
.	.	.	.	8ee-	.
2g-	(2.an	.	.	8ff	.
.	.	.	.	8ee-J	.
.	.	.	.	8ffL	.
.	.	.	.	8ee-	.
4f\)	.	.	.	8ff	.
.	.	.	.	8ee-J	.
*	*v	*v	*	*	*
=52	=52	=52	=52	=52
(4B-	1B-	2bb-	8ddL	.
.	.	.	8b-	.
4d 4f	.	.	8cc	.
.	.	.	8b-J	.
4e- 4gn	.	(4gg	8ggL	.
.	.	.	8b-	.
4d 4f)	.	4ff)	8ff	.
.	.	.	8b-J	.
*clefF4	*	*	*	*
!!LO:LB:g=original
=53	=53	=53	=53	=53
(<4d	1F	(4ff	8b-L	.
.	.	.	8f	.
4c 4e-	.	4ee-	8an	.
.	.	.	8fJ	.
4B- 4d	.	4dd	8b-L	.
.	.	.	8f	.
4An) 4c	.	4cc	8cc)	.
.	.	.	8fJ	.
=54	=54	=54	=54	=54
4rA	1BB-	1dd	8ddL	.
.	.	.	8f	.
2C# (2En	.	.	8g	.
.	.	.	8fJ	.
.	.	.	8gL	.
.	.	.	8f	.
4D 4F)	.	.	8g	.
.	.	.	8fJ	.
=55	=55	=55	=55	=55
*	*^	*	*	*
4rA	4rA	1BB-	1cc	8ccL	.
.	.	.	.	8e-	.
2.An	(2G-	.	.	8f	.
.	.	.	.	8e-J	.
.	.	.	.	8fL	.
.	.	.	.	8e-	.
.	4F)	.	.	8f	.
.	.	.	.	8e-J	.
*	*v	*v	*	*	*
=56	=56	=56	=56	=56
(4BB-	1BB-	2b-	8dL	.
.	.	.	8B-	.
4D 4F	.	.	8c	.
.	.	.	8B-J	.
4E-X 4Gn	.	(4g	8gL	.
.	.	.	8B-	.
4D) 4F	.	4f)	8f	.
.	.	.	8B-J	.
*	*	*v	*v	*
*	*	*clefF4	*
=57	=57	=57	=57
*	*	*^	*
(<4D	1FF	(4f	8B-L	.
.	.	.	8F	.
4C 4E-	.	4e-	8An	.
.	.	.	8FJ	.
4BB- 4D	.	4d	8B-L	.
.	.	.	8F	.
4AAn) 4C	.	4c	8c)	.
.	.	.	8FJ	.
*v	*v	*	*	*
!!LO:LB:g=original
=58	=58	=58	=58
(4.BBB- 4.BB-	[2B-	8B-L	.
.	.	[>8G-J	.
.	.	[4D 4G-_>	.
8GG-	.	.	.
4FF	8B-L]	8D] 8G-]	.
.	8F	4.ryy	.
4BBB-	8D	.	.
.	[8B-J	.	.
=59	=59	=59	=59
*^	*	*	*
4ryy	4FFF)	8B-L]	2F	.
.	.	8B-	.	.
8E-L	4ryy	8An	.	.
8DJ	.	8B-J	.	.
8CL	4ryy	8cL	2ryy	.
8BB-	.	8d	.	.
8AAn	4FF	8e-	.	.
8FJ	.	8cJ	.	.
*v	*v	*	*	*
*	*clefG2	*	*
=60	=60	=60	=60
(<4.BB-	[2b-	8b-L	.
.	.	[>8g-J	.
.	.	[4d 4g-_>	.
8G-	.	.	.
4F	8b-L]	8d] 8g-]	.
.	8f	4.ryy	.
4BB-	8d	.	.
.	[8b-J	.	.
=61	=61	=61	=61
4FF)	2f\	8b-L>]	.
.	.	8b-	.
8e-L	.	8an	.
8dJ	.	8b-J	.
8cL	8ccL	2ryy	.
8B-	8dd	.	.
8F 8An	8ee-	.	.
8cJ	8ccJ	.	.
*	*v	*v	*
=62	=62	=62
!	!	!LO:DY:i:t=%s e legato
4.B- 4.d	8ddL	p
.	8ccJ	.
.	4.b-/	.
8c	.	.
4.B-	.	.
.	8g	.
.	[4f	.
8G	.	.
!!LO:LB:g=original
=63	=63	=63
4.F	8fL]	.
.	8e-J	.
.	4.d	.
8E-	.	.
4.D	.	.
*	*clefF4	*
.	8c	.
.	[4B-	.
8C	.	.
=64	=64	=64
4.BB-	8B-L]	.
.	8GJ	.
.	4.F	.
8GG	.	.
4.FF	.	.
.	8E-	.
.	[4D	.
8EE-	.	.
=65	=65	=65
4.DD	8DL]	.
.	8CJ	.
.	4.BB-	.
8CC	.	.
4.BBB-	.	.
.	8C	.
.	[4BB-	.
*clefG2	*	*
8f 8a-X	.	.
=66	=66	=66
1f 1a-	4BB-]	p
.	4r	.
.	2r	.
*	*clefG2	*
=67	=67	=67
1e- 1g	1r	.
=68	=68	=68
*>A1	*>A1	*>A1
1d 1f	1b- 1ff	.
=69	=69	=69
1d- 1e-	1b- 1gg	.
=70:|!	=70:|!	=70:|!
*>A2	*>A2	*>A2
1d 1f	1b- 1ff	.
=71	=71	=71
1c 1e-	1a- 1aa-	.
!!LO:LB:g=original
=72	=72	=72
*>B	*>B	*>B
2.Bn 2.d	2.g 2.gg	f
4B- 4d	(8ddL	.
.	8ggJ)	.
=73	=73	=73
4An 4c	4g' 4gg'	.
4r	(8ccL	.
.	8ffJ)	.
4A- 4c	4f' 4ff'	.
4r	(8ccL	.
.	8ee-J)	.
*clefF4	*	*
=74	=74	=74
*	*^	*
4G 4c	4e-'\ 4ee-'\	4ryy	.
4F# 4c	4ryy	(8aL	.
.	.	8ddJ)	.
4Fn 4G 4Bn	4d' 4g' 4dd'	4ryy	.
4E- 4G 4c	(<8ggL	4cc	.
.	8cccJ)	.	.
*	*v	*v	*
=75	=75	=75
1r	(1f	p
=76	=76	=76
1r	1e-)	.
=77	=77	=77
4r	[1g- [1an [1ee-	p
(8CL	.	.
8G-J)	.	.
4G-'	.	.
(8AAnL	.	.
8E-J)	.	.
=78	=78	=78
4E-'	2.g-/] 2.a/] 2.ee-/]	.
(8FFL	.	.
8CJ)	.	.
4C'	.	.
4D-'/	4f 4b- 4dd-	.
!!LO:LB:g=original
=79	=79	=79
1r	(1dd-	.
=80	=80	=80
1r	1cc)	.
*clefG2	*	*
=81	=81	=81
4r	[1cc [1ddn [1ff# [1aan	.
(8dnL	.	.
8anJ)	.	.
4a'	.	.
*clefF4	*	*
(8F#L	.	.
8cJ)	.	.
=82	=82	=82
4c'	1cc] 1dd] 1ff#] 1aa]	.
(8DL	.	.
8AnJ)	.	.
4A'	.	.
(8DDL	.	.
8DJ)	.	.
=83	=83	=83
1r	(1cc	.
=84	=84	=84
1r	1cc-)	.
=85	=85	=85
4r	[1cc- [1ee- [1gg- [1aan	.
(8G-L	.	.
8e-J)	.	.
4e-'	.	.
(8E-L	.	.
8c-J)	.	.
=86	=86	=86
4c-'	1cc-] 1ee-] 1gg-] 1aa]	.
(8C-L	.	.
8G-J)	.	.
4G-'	.	.
(8GG-L	.	.
8E-J)	.	.
!!LO:LB:g=original
=87	=87	=87
1r	(1cc-	.
=88	=88	=88
1r	1b-)	.
*clefG2	*	*
=89	=89	=89
4r	[1b- [1dd [1ff [1aa-X	.
(8A-L	.	.
8fJ)	.	.
4f'	.	.
(8FL	.	.
8dJ)	.	.
=90	=90	=90
4d'	4b-] 4dd] 4ff] 4aa-]	.
*clefF4	*	*
8D (8FL	(4bb-	.
8F 8A-J)	.	.
4F' 4A-'	4ccc-	.
8D (8FL	4bb-)	.
8F 8A-J)	.	.
*clefG2	*	*
=91	=91	=91
4r	[1b- [1dd [1ff [1aa-	.
(8A-L	.	.
8fJ)	.	.
4f'	.	.
(8FL	.	.
8dJ)	.	.
=92	=92	=92
4d'	4b-] 4dd] 4ff] 4aa-]	.
(4dd	4ff (4bb-	<
4ee-	4gg- 4ccc-	.
4dd)	4ff 4bb-)	.
!!LO:LB:g=original
=93	=93	=93
*	*^	*
2.d- 2.gn 2.b-	2.ee- 2.ggn 2.bb- 2.eee-	2.ryy	f
4c- 4f 4a-	(8aa-L	4ff	.
.	8ddd-J)	.	.
=94	=94	=94	=94
4B- 4d- 4g-	4gg- 4ddd-	4ryy	.
*clefF4	*	*	*
(4A-X 4d-X	(8ffL	4cc-	.
.	8ccc-J)	.	.
4F 4d-	4cc- 4aa- (4ccc-	4ryy	.
4G- 4d-	4ryy	4b- 4gg- 4bb-	.
*	*v	*v	*
=95	=95	=95
4c- 4e-	4a- 4aa-	p
4B- 4d-	4g- 4gg-	.
4A- 4c-	4f 4ff	.
4G- 4B-)	4g- 4gg-)	.
=96	=96	=96
4r	1a- 1cc- 1aa-	.
(8FFL	.	.
8D-J)	.	.
4D-'	.	.
(8FL	.	.
8d-J)	.	.
=97	=97	=97
!	!	!LO:HP:i:t=sempre dim.
4r	1a- 1bn 1aa-	>
(8FFL	.	.
8DnJ)	.	.
4D'	.	.
(8FL	.	.
8dnJ)	.	.
=98	=98	=98
4r	1gn 1ccn 1ggn	.
(8EE-L	.	.
8CJ)	.	.
4C'	.	.
(8E-L	.	.
8cJ)	.	.
!!LO:LB:g=original
=99	=99	=99
4r	1f 1g 1bn 1ff	.
(8DDL	.	.
8BBnJ)	.	.
4BB'	.	.
(8DL	.	.
8BnJ)	.	.
=100	=100	=100
4r	1e- 1g 1cc 1ee-	.
(8CCL	.	.
8CJ)	.	.
4C'	.	.
(8CL	.	.
8cJ)	.	.
=101	=101	=101
4r	1f 1a- 1bn 1dd	.
(8CCL	.	.
8CJ)	.	.
4C'	.	.
(8CL	.	.
8cJ)	.	.
=102	=102	=102
4r	1e- 1g 1cc	.
(8CCL	.	.
8CJ	.	.
4C')	.	.
(8CL	.	.
8cJ)	.	.
=103	=103	=103
4r	1Bn 1d 1f 1a-	.
(8CCL	.	.
8CJ	.	.
4C')	.	.
(8CL	.	.
8cJ)	.	.
!!LO:LB:g=original
=104	=104	=104
4r	1c 1e- 1g	.
(8CCL	.	.
8CJ	.	.
4C')	.	.
(8CL	.	.
8cJ)	.	.
=105	=105	=105
4r	1c 1e- 1a-	.
(8CCL	.	.
8CJ	.	.
4C')	.	.
(8CL	.	.
8cJ)	.	.
=106	=106	=106
4r	1e- 1a-	pp
(8CL	.	.
8cJ)	.	.
(8CL	.	.
8cJ)	.	.
4r	.	.
=107	=107	=107
4r	1d 1a-	.
(8BBnL	.	.
8BnJ)	.	.
(8BBL	.	.
8BJ)	.	.
4r	.	.
=108	=108	=108
4r	1e- 1a-	.
(8CL	.	.
8cJ)	.	.
(8CL	.	.
8cJ)	.	.
4r	.	.
=109	=109	=109
4r	1e- 1a-	.
(8CL	.	.
8cJ)	.	.
(8CL	.	.
8cJ)	.	.
4r	.	.
!!LO:LB:g=original
=110	=110	=110
4r	2.e- 2.a-	<
(8CL	.	.
8cJ)	.	.
(8CL	.	.
8c)	.	.
(8C	(8A-L	.
8cJ)	8a-J)	.
=111	=111	=111
(8CL	(8A-L	.
8cJ)	8a-J)	.
(8cL	(8a-L	.
8e-J)	8aa-J)	.
(8cL	(8a-L	.
8e-)	8aa-)	.
(8c	(8a-	.
8e-J)	8aa-J)	.
=112	=112	=112
*	*^	*
2.c 2.e-	2.a- 2.aa-	2.ryy	f
8Bn (8dL	(8ddL	4g	.
8B- 8d-J)	8ggJ)	.	.
=113	=113	=113	=113
!	!LO:TX:a:i:t=ten.	!	!
4B- 4d-	4gg	4g	.
8An (8cL	(8ccL	4f	.
8A- 8c-J)	8ffJ)	.	.
!	!LO:TX:a:i:t=ten.	!	!
4A- 4c-	4ff	4f	.
8G (8B-L	(8b-L	4e-	.
8F# 8AnJ)	8ee-J)	.	.
*	*v	*v	*
=114	=114	=114
(2.Fn 2.A-X	2e-\ 2a-\ 2b-\ (2ee-\	sf >]
.	4d\ 4a-\ 4b-\ 4dd\	.
!	!	!LO:DY:rj
4E- 4G	4e-\ 4b-\ 4ee-\	p
=115	=115	=115
4D 4F	4f 4b- 4ff	.
4C 4E-	4g 4b- 4gg	.
4BB-\ 4D\	4a- 4b- 4aa-	.
4BB- 4D 4F)	4b- 4bb-)	.
!!LO:LB:g=original
=116	=116	=116
8EE-L<	4g' 4b-' 4gg'	<
8BB-	.	.
8G	4r	.
8BB-J	.	.
8EE-L<	4b-' 4bb-'	.
8BB-	.	.
8G	4r	.
8BB-J	.	.
=117	=117	=117
*	*8va	*
*ped	*	*
8FFL<	2.bb- 2.bbb-	sf
*	*X8va	*
8BB-	.	.
8A-	.	.
8BB-J	.	.
8FFL<	.	.
8BB-	.	.
8A-	[4b- [4bb-	sfp
*Xped	*	*
8BB-J	.	.
=118	=118	=118
*ped	*	*
8GGL<	2.b-] (2.bb-]	.
8BB-	.	.
8B-	.	.
8BB-J	.	.
8GGL<	.	.
8BB-	.	.
8B-	4g 4gg	.
*Xped	*	*
8BB-J	.	.
=119	=119	=119
8AA-L<	4f/ 4ff/	.
8BB-	.	.
8A-	4d 4dd	.
8BB-J	.	.
8BBB-L	4c- 4cc-	.
8BB-	.	.
8F	4B- 4b-)	.
8BB-J	.	.
=120	=120	=120
8EE-L<	4B-' 4b-'	.
8BB-	.	<
8G	4r	.
8BB-J	.	.
8EE-L<	4b-' 4bb-'	.
8BB-	.	.
8G	4r	.
8BB-J	.	.
!!LO:LB:g=original
=121	=121	=121
*	*8va	*
*ped	*	*
8FFL<	2.bb- 2.bbb-	sf
*	*X8va	*
8BB-	.	.
8A-	.	.
8BB-J	.	.
8FFL<	.	.
8BB-	.	.
8A-	[4b- [4bb-	sfp
*Xped	*	*
8BB-J	.	.
=122	=122	=122
*ped	*	*
8GGL	2.b-] (2.bb-]	.
8E-	.	.
8B-	.	.
8E-J	.	.
8GGL	.	.
8E-	.	.
8B-	4g 4gg	.
*Xped	*	*
8E-J	.	.
=123	=123	=123
8AA-L	4en\ 4een\	.
8E-	.	.
8c	4f 4ff	.
8E-J	.	.
8AAnL	4c\ 4cc\	.
8F	.	.
8c	4e-\ 4ee-\)	.
8FJ	.	.
=124	=124	=124
4BB-	8d (8ddL<	.
.	8b-	.
(8e-L	8an	.
8dJ	8b-J	.
8cL	8a 8ccL	.
8B-	8b- 8dd	.
8An	8cc 8ee-	.
8A-J	8dd 8ffJ)	.
=125	=125	=125
8GL	2ee- 2gg	.
8F	.	.
8E-	.	.
8DJ	.	.
8E-L	(8aa-X 8cccL	.
8F	8gg 8bb-	.
8G	8ff 8aa-	.
8A-J)	8ee- 8ggJ)	.
!!LO:LB:g=original
=126	=126	=126
4B-'	4dd' 4ff'	.
(8fL	8bn (8aa-L	.
8e-J	8cc 8ggJ	.
8dL	8g 8ffL	.
8c)	8ee- 8ff#)	.
8Bn'	8dd' 8gg'	<
8An'J	8dd' 8ff#' 8aan'J	.
=127	=127	=127
8G'L	8dd' 8gg' 8bbn'L	.
8F'	8dd' 8gg' 8bb'	.
8E-'	8ee-' 8gg' 8ccc'	.
8D'J	8ff' 8bb' 8ddd'J	.
8C'L	8gg' 8ccc' 8eee-'L	.
8BB-'	8gg' 8ccc' 8eeen'	.
8AAn' 8C'	8ff' 8ccc' 8fff'	.
8AA' 8C'J	8ff' 8ccc' 8fff'J	.
=128	=128	=128
4AA-X' 4BB-'	4ff' 4bb-' 4ddd'	f
4r	4r	.
4GG' 4BB-'	4ee-X' 4bb-' 4eee-X'	.
4r	4r	.
=129	=129	=129
*^	*^	*
[1F	(2.C-	(2.a-	[1e-	sf
.	4BB-)	4b-)	.	.
*v	*v	*	*	*
=130	=130	=130	=130
1AA- 1F]	1cc-z	4e-]	.
.	.	(>8e-L	.
.	.	8dJ	.
.	.	8e-L	.
.	.	8d	.
.	.	8e-	.
.	.	8dJ)	.
=131	=131	=131	=131
*^	*	*	*
[1F	(2.C-	(2.a-	[1e-	sf
.	4BB-)	4b-)	.	.
*v	*v	*	*	*
!!LO:LB:g=original
=132	=132	=132	=132
1AAn 1F]	1ccnz	4e-]	.
.	.	(>8e-L	>
.	.	8dJ	.
.	.	8e-L	.
.	.	8d	.
.	.	8e-	.
.	.	8dJ)	]]
*	*v	*v	*
=133	=133	=133
4BB- 4F	4cc-'	p
4r	(8e-L	.
.	8dJ	.
2r	8e-L	.
.	8d	.
.	8e-	.
.	8dJ)	.
=134	=134	=134
4BB- 4G	4b-'/	.
4r	(8fL	.
.	8enJ	.
2r	8fL	.
.	8e	.
.	8f	.
.	8eJ)	.
=135	=135	=135
4BB- 4A-	4b-'/	.
4r	(8gL	.
.	8fJ)	.
4BB- 4G	4b-'	.
4r	(8fL	.
.	8e-XJ)	.
=136	=136	=136
4BB- 4F	4b-'/	.
4r	(8e-L	.
.	8dJ)	.
4BB- 4G	4b-'/	.
4r	(8fL	.
.	8e-J)	.
*clefG2	*	*
=137	=137	=137
4B- 4f	4ccc-'	.
4r	(8ee-L	.
.	8ddJ	.
2r	8ee-L	.
.	8dd	.
.	8ee-	.
.	8ddJ)	.
!!LO:LB:g=original
=138	=138	=138
4B- 4g	4bb-'	.
4r	(8ffL	.
.	8eenJ	.
2r	8ffL	.
.	8ee	.
.	8ff	.
.	8eeJ)	.
=139	=139	=139
4B- 4a-	4bb-'	.
4r	(8ggL	.
.	8ffJ)	.
4B- 4g	4bb-'	.
4r	(8ffL	.
.	8eenJ)	.
=140	=140	=140
4B- 4a-	4bb-'	.
4r	(8ggL	.
.	8ffJ)	.
(4B-	(4bb-	.
8cL	[4ff [4aa-	.
8dJ	.	.
=141	=141	=141
*	*^	*
8e-L	4ff] 4aa-]	2b-	.
8f	.	.	.
8g	4ee-X 4gg	.	.
8a-J	.	.	.
*	*8va	*	*
4b-/)	4ddd 4fff)	4ryy	.
(8ccL	4ryy	[4fff (>[>4aaa-	.
8ddJ	.	.	.
=142	=142	=142	=142
8ee-L	4fff] 4aaa-]	2.bb-	.
8ff	.	.	.
8gg	4eee- 4ggg	.	.
8aa-J	.	.	.
4bb-)	4ddd 4fff)	.	.
(4aa-	([4cccc	4ddd 4fff	.
=143	=143	=143	=143
4gg	4cccc]	4bb- 4eee-	.
4gg-	2bbb-	4bb- 4eee-	.
4ff	.	4ccc 4eee-	.
4b-)	4aaa-	4ddd 4fff)	.
*	*	*X8va	*
!!LO:LB:g=original
=144	=144	=144	=144
*^	*	*	*
!LO:TX:a:i:t=espress.	!	!	!	!
4e-	1e-	1gg 1ggg	8ggL	.
.	.	.	8bb-	.
(<2f# 2a-	.	.	8ccc	.
.	.	.	8bb-J	.
.	.	.	8cccL	.
.	.	.	8bb-	.
4g) 4b-	.	.	8ccc	.
.	.	.	8bb-J	.
*v	*v	*	*	*
=145	=145	=145	=145
*^	*	*	*
*	*^	*	*	*
4ryy	4e-/	1e-	1ff 1fff	8ffL	.
.	.	.	.	8aa-	.
2.ddn	(2cc-	.	.	8bb-	.
.	.	.	.	8aa-J	.
.	.	.	.	8bb-L	.
.	.	.	.	8aa-	.
.	4b-)	.	.	8bb-	.
.	.	.	.	8aa-J	.
*	*v	*v	*	*	*
=146	=146	=146	=146	=146
(4e-	1e-	(2eee-	8ggL	.
.	.	.	8ee-	.
4g 4b-	.	.	8ff	.
.	.	.	8ee-J	.
4a-X 4ccn	.	4ccc	8cccL	.
.	.	.	8ee-	.
4g 4b-	.	4bb-	8bb-	.
.	.	.	8ee-J	.
=147	=147	=147	=147	=147
4g	1B-	4bb-	8bb-L	.
.	.	.	8b-	.
4f 4a-	.	4aa-	8dd	.
.	.	.	8b-J	.
4e- 4g	.	4gg	8ee-L	.
.	.	.	8b-	.
4d 4f)	.	4ff)	8a-	.
.	.	.	8b-J	.
*v	*v	*	*	*
*clefF4	*	*	*
=148	=148	=148	=148
*^	*	*	*
!LO:TX:a:i:t=express.	!	!	!	!
4E-	1E-	1g 1gg	8gL	.
.	.	.	8b-	.
(<2F# 2An	.	.	8cc	.
.	.	.	8b-J	.
.	.	.	8ccL	.
.	.	.	8b-	.
4G) 4B-	.	.	8cc	.
.	.	.	8b-J	.
!!LO:LB:g=original
=149	=149	=149	=149	=149
*	*^	*	*	*
4re	4re	1E-	1f 1ff	8fL	.
.	.	.	.	8a-	.
2.dn	(2c-	.	.	8b-	.
.	.	.	.	8a-J	.
.	.	.	.	8b-L	.
.	.	.	.	8a-	.
.	4B-)	.	.	8b-	.
.	.	.	.	8a-J	.
*	*v	*v	*	*	*
*v	*v	*	*	*
=150	=150	=150	=150
2E- 2G 2B-	(2ee-	8gL	.
.	.	8e-	.
.	.	8f	.
.	.	8e-J	.
4AA- 4E- 4A-	4a- 4cc	8cL	.
.	.	8e-	.
4EE- 4E-	4g 4b-)	8B-	.
.	.	8e-J	.
=151	=151	=151	=151
4BBB-	(4b-	8gL	.
.	.	8B-	.
4BB-	4a-	8f	.
.	.	8A-J	.
4BBB-	4g	8e-L	.
.	.	8G	.
4BB-	4f)	8d	.
.	.	8FJ	.
=152	=152	=152	=152
(4.EE-	[2e-	8e-L	rf
.	.	[>8c-J	.
.	.	[4G 4c-_	.
8C-	.	.	.
4BB-	8e-L]	8G] 8c-]	.
.	8B-	4.ryy	.
4EE-)	8G	.	.
.	[8e-J	.	.
=153	=153	=153	=153
*^	*	*	*
4ryy	4BBB-	8e-L]	2B-	.
.	.	8e-	.	.
8A-L	4ryy	8d	.	.
8GJ	.	8e-J	.	.
8FL	4ryy	8fL	2ryy	.
8E-J	.	8g	.	.
4BB-\	8DL>	8a-	.	.
.	8B-J	8fJ	.	.
*v	*v	*	*	*
!!LO:LB:g=original
=154	=154	=154	=154
(4.E-	[2ee-	8ee-L	.
.	.	[>8cc-J	.
.	.	[4g 4cc-_	.
8c-	.	.	.
4B-	8ee-L]	8g] 8cc-]	.
.	8b-	4.ryy	.
4E-)	8g	.	.
.	[8ee-J	.	.
=155	=155	=155	=155
*^	*	*	*
4BB-	4ryy	2b-\	8ee-L>]	.
.	.	.	8ee-	.
*clefG2	*clefG2	*	*	*
8a-L	4ryy	.	8dd	.
8gJ	.	.	8ee-J	.
8fL	4ryy	8ffL	2ryy	.
8e-	.	8gg	.	.
8d	4B-	8aa-	.	.
8fJ	.	8ffJ	.	.
*v	*v	*	*	*
*	*v	*v	*
=156	=156	=156
!	!	!LO:DY:i:t=%s e legato
4.e- 4.g	8ggL	p
.	8ffJ	.
.	4.ee-	.
*clefF4	*	*
8f	.	.
4.e-	.	.
.	8cc	.
.	[4b-	.
8c	.	.
=157	=157	=157
4.B-	8b-L]	.
.	8a-J	.
.	4.g	.
8A-	.	.
4.G	.	.
.	8f	.
.	[4e-	.
8F	.	.
=158	=158	=158
4.E-	8e-L]	.
.	8cJ	.
.	4.B-	.
8C	.	.
4.BB-	.	.
*	*clefF4	*
.	8A-	.
.	[4G	.
8AA-	.	.
!!LO:LB:g=original
=159	=159	=159
4.GG	8GL]	.
.	8FJ	.
.	4.E-	.
8FF	.	.
4.EE-	.	.
.	8F	.
.	[4E-	.
*clefG2	*	*
8b- 8dd-	.	.
=160	=160	=160
1b- 1dd-	4E-]	p
.	4r	.
.	2r	.
=161	=161	=161
1a- 1cc	1r	.
*	*clefG2	*
=162	=162	=162
1g 1b-	1ee- 1bb-	<
=163	=163	=163
1f 1a-	1dd- 1ddd-	.
=164	=164	=164
2.en 2.g	2.cc 2.ccc	f
(8e- 8anL	8cc (8ffL	.
8d-) 8fJ	8dd- 8bb-J)	.
=165	=165	=165
4d-' 4f'	4dd-' 4bb-'	.
(8d- 8gL	8b- (8ee-L	.
8c) 8e-J	8cc 8aa-J)	.
4c' 4e-'	4cc' 4aa-'	.
(8c 8fL	8a- (8dd-L	.
8B-) 8d-J	8b- 8ggJ)	.
=166	=166	=166
4B-' 4d-'	4b-' 4gg'	.
(8B- 8enL	8g (8ccL	.
8A-) 8cJ	8a- 8ffJ)	.
4A-' 4c'	4a-' 4ff'	.
*clefF4	*	*
4A- 4Bn	4f 4ff	.
!!LO:LB:g=original
=167	=167	=167
[2G [2B-X	2f (2ff	>
4G] 4B-]	4en\ 4een\	]
!	!	!LO:DY:rj
(4F 4A-	4f 4ff	p
=168	=168	=168
4En 4G	4g 4cc 4gg	.
4Dn 4F	4a- 4cc 4aa-	.
4C 4E	4b- 4cc 4bb-	.
4C 4E 4G 4B-)	4g 4cc 4een 4gg)	.
=169	=169	=169
8FFL<	4a-' 4cc' 4ff' 4aa-'	<
8C	.	.
8A-	4r	.
8CJ	.	.
8FFL<	4cc' 4ccc'	.
8C	.	.
8A-	4r	.
8CJ	.	.
=170	=170	=170
*	*8va	*
*ped	*	*
8GGL<	2.ccc 2.cccc	sf
*	*X8va	*
8C	.	.
8B-	.	.
8CJ	.	.
8GGL<	.	.
8C	.	.
8B-	[4cc ([4ccc	sfp
*Xped	*	*
8CJ	.	.
=171	=171	=171
*ped	*	*
8AA-L	2.cc] 2.ccc]	.
8C	.	.
8c	.	.
8CJ	.	.
8AA-L	.	.
8C	.	.
8c	4a- 4aa-	.
*Xped	*	*
8CJ	.	.
=172	=172	=172
8BB-L	4g 4gg	.
8C	.	.
8B-	4en\ 4een\	.
8CJ	.	.
8CCL	4d-\ 4dd-\	.
8C	.	.
8G	4c 4cc)	.
8CJ	.	.
!!LO:LB:g=original
=173	=173	=173
8FFL	4c' 4cc'	.
8C	.	.
8A-	4r	.
8CJ	.	.
8FFL	4cc' 4ccc'	.
8C	.	.
8A-	4r	.
8CJ	.	.
=174	=174	=174
*	*8va	*
8GGL<	2.ccc 2.cccc	sf
*	*X8va	*
8C	.	.
8B-	.	.
8CJ	.	.
8GGL<	.	.
8C	.	.
8B-	[4cc [4ccc	sfp
8CJ	.	.
=175	=175	=175
8AA-L	2.cc] (2.ccc]	.
8C	.	.
8c	.	.
8CJ	.	.
8FFL<	.	.
8C	.	.
8A-	4a- 4aa-	.
8CJ	.	.
=176	=176	=176
8DDL	4f/ 4ff/	.
8BB-	.	.
8F	4d 4dd	.
8BB-J	.	.
8DDL	4c- 4cc-	.
8BB-	.	.
8F	4B- 4b-)	.
8BB-J	.	.
=177	=177	=177
8EE-L	4B-' 4b-'	.
8BB-	.	<
8G-	4r	.
8BB-J	.	.
8EE-L	4b-' 4bb-'	.
8BB-	.	.
8G-	4r	.
8BB-J	.	.
!!LO:LB:g=original
=178	=178	=178
*	*8va	*
8FFL<	2.bb- 2.bbb-	sf
*	*X8va	*
8BB-	.	.
8A-	.	.
8BB-J	.	.
8FFL<	.	.
8BB-	.	.
8A-	[4b- [4bb-	sfp
8BB-J	.	.
=179	=179	=179
8GG-L<	2.b-] (2.bb-]	.
8BB-	.	.
8B-	.	.
8BB-J	.	.
8GG-L<	.	.
8BB-	.	.
8B-	4g- 4gg-	.
8BB-J	.	.
=180	=180	=180
8AA-L<	4f 4ff	.
8BB-	.	.
8A-	4d\ 4dd\	.
8BB-J	.	.
8BBB-L<	4c- 4cc-	.
8BB-	.	.
8F	4B- 4b-)	.
8BB-J	.	.
=181	=181	=181
8EE-L<	4B-' 4b-'	f
8BB-	.	.
8G-	4r	.
8BB-J	.	.
8FFL<	4b-' 4bb-'	.
8BB-	.	.
8A-	4r	.
8BB-J	.	.
=182	=182	=182
*	*8va	*
8GGnL	4bb-' 4bbb-'	.
8E-	.	.
8B-	4r	.
8E-J	.	.
8AA-L	4ccc-' 4cccc-'	.
*	*X8va	*
8E-	.	.
8c-	4r	.
8E-J	.	.
!!LO:LB:g=original
=183	=183	=183
!	!	!LO:DY:i:t=%s e legato
1r	1cc-	p
=184	=184	=184
1r	1b-	.
=185	=185	=185
1c-	4a-	.
.	4r	.
.	2r	.
=186	=186	=186
1B-	1r	.
=187	=187	=187
4AnX	1ccn	.
4r	.	.
2r	.	.
=188	=188	=188
1r	1b-	.
=189	=189	=189
1cn	4an	.
.	4r	.
.	2r	.
=190	=190	=190
1B-	1r	.
=191	=191	=191
4A-X	1ff	.
4r	.	.
2r	.	.
=192	=192	=192
1r	1ee-	.
*clefG2	*	*
=193	=193	=193
1f 1a-	4dd	.
.	4r	.
.	2r	.
=194	=194	=194
1e- 1g	1r	.
!!LO:LB:g=original
=195	=195	=195
1d 1f	1b- 1bb-	<
=196	=196	=196
1c 1e-	1a- 1aa-	.
=197	=197	=197
1Bn 1d	[1g [1gg	sf
=198	=198	=198
*^	*	*
2e-	1B-	2g] 2gg]	>
4f	.	4a- 4aa-	.
4d	.	4f 4ff	]
*v	*v	*	*
*clefF4	*	*
=199	=199	=199
!	!LO:TX:b:i:t=dolce	!
8r	1ee- 1gg	.
!	!	!LO:DY:b=2:rj
(8B-L	.	p
8c	.	.
8B-J	.	.
8AnL	.	.
8B-	.	.
8G	.	.
8E-J	.	.
=200	=200	=200
8A-XL	1b- 1ff	.
8F	.	.
8D	.	.
8BB-J	.	.
8AA-L	.	.
8FF	.	.
8DD	.	.
8BBB-J)	.	.
=201	=201	=201
(8EE-L	2g (2ee-	.
8FF	.	.
8GG	.	.
8AA-J	.	.
8BB-L	4a- 4cc	.
8C	.	.
8D	4g\ 4b-\)	.
8E-J)	.	.
!!LO:LB:g=original
=202	=202	=202
*^	*	*
(8FL	1BB-	4g (4b-	.
8G	.	.	.
8A-	.	4f 4a-	.
8AnJ	.	.	.
4B-)	.	4e- 4g	.
4A-	.	4B- 4f)	.
*v	*v	*	*
=203	=203	=203
!LO:TX:a:i:t=legato	!	!
1E- 1G	8e-L	.
.	8B-	.
.	8c	.
.	8B-J	.
.	8AnL	.
.	8B-	.
.	8g	.
.	8e-J	.
=204	=204	=204
1BB- 1F	8dL	.
.	8e-	.
.	8f	.
.	8gJ	.
.	8a-L	.
.	8an	.
.	8cc	.
.	8b-J	.
*clefG2	*	*
=205	=205	=205
1e- 1g	8anL	.
.	8b-	.
.	8cc	.
.	8b-J	.
.	8aL	.
.	8b-	.
.	8gg	.
.	8ee-J	.
=206	=206	=206
1B- 1f	8ddL	.
.	8ee-	.
.	8ff	.
.	8ggJ	.
.	8aa-L	.
.	8aan	.
.	8ccc	.
.	8bb-J	.
!!LO:LB:g=original
=207	=207	=207
1ee- 1gg	8aanL	<
.	8bb-	.
.	8ccc	.
.	8bb-J	.
.	8aaL	.
.	8bb-	.
.	8ggg	.
.	8eee-J	.
=208	=208	=208
*	*8va	*
2b- 2dd 2ff	8dddL	.
.	8eee-	.
.	8fff	.
.	8gggJ	.
2a- 2b- 2dd 2ff	8aaa-L	.
.	8aaan	.
.	8cccc	.
.	8bbb-J	.
=209	=209	=209
2g 2b-	8aaanL	.
.	8bbb-	.
.	8aaa-	.
.	8gggJ	.
2e- 2g	8fffL	.
.	8eee-	.
.	8ddd	.
.	8cccJ	.
*	*X8va	*
=210	=210	=210
2B- 2f 2a-	8bb-L	.
.	8aa-	.
.	8gg	.
.	8ffJ	.
2B- 2f 2a-	8ee-L	>
.	8dd	.
.	8ff	.
.	8aa-J	]]
*clefF4	*	*
=211	=211	=211
!	!	!LO:DY:i:t=%s e dolce
8r	1ee- 1gg	p
(>8B-L	.	.
8c	.	.
8B-J	.	.
8AnL	.	.
8B-	.	.
8G	.	.
8E-J	.	.
!!LO:LB:g=original
=212	=212	=212
8A-L	1b- 1ff	.
8F	.	.
8D	.	.
8BB-J	.	.
8AA-L	.	.
8FF	.	.
8DD	.	.
8BBB-J)	.	.
=213	=213	=213
8EE-L	2g (2ee-	.
8FF	.	.
8GG	.	.
8AA-J	.	.
8BB-L	4a- 4cc	.
8C	.	.
8D	4g\ 4b-\)	.
8E-J	.	.
=214	=214	=214
*^	*	*
(8FL	1BB-	4g (>4b-	.
8G	.	.	.
8A-	.	4f 4a-	.
8AnJ	.	.	.
4B-	.	4e- 4g	.
4A-)	.	4B- 4f)	.
*v	*v	*	*
=215	=215	=215
!LO:TX:a:i:t=legato	!	!
1E- 1G	8e-L	.
.	8B-	.
.	8c	.
.	8B-J	.
.	8AnL	.
.	8B-	.
.	8g	.
.	8e-J	.
=216	=216	=216
1BB- 1F	8dL	.
.	8e-	.
.	8f	.
.	8gJ	.
.	8a-L	.
.	8an	.
.	8cc	.
.	8b-J	.
*clefG2	*	*
!!LO:LB:g=original
=217	=217	=217
1e- 1g	8anL	.
.	8b-	.
.	8cc	.
.	8b-J	.
.	8aL	.
.	8b-	.
.	8gg	.
.	8ee-J	.
=218	=218	=218
1B- 1f	8ddL	.
.	8ee-	.
.	8ff	.
.	8ggJ	.
.	8aa-L	.
.	8aan	.
.	8ccc	.
.	8bb-J	.
=219	=219	=219
1ee- 1gg	8aanL	<
.	8bb-	.
.	8ccc	.
.	8bb-J	.
.	8aaL	.
.	8bb-	.
.	8ggg	.
.	8eee-J	.
=220	=220	=220
*	*8va	*
!LO:TX:a:i:t=legato	!	!
2b- 2ff	8dddL	.
.	8eee-	.
.	8fff	.
.	8gggJ	.
2a- 2b- 2ff	8aaa-L	.
.	8aaan	.
.	8cccc	.
.	8bbb-J	.
=221	=221	=221
4g 4b-	8bbb-	.
*	*X8va	*
.	8b-L	.
2e- 2g	8cc	.
.	8b-J	.
.	8anL	.
.	8b-	.
4e- 4g	8gg	.
.	8ee-J	.
*clefF4	*	*
!!LO:LB:g=original
=222	=222	=222
2B- 2f	8ddL	.
.	8ee-	.
.	8ff	.
.	8ggJ	.
2A- 2B- 2f	8aa-L	.
.	8aan	.
.	8ccc	.
.	8bb-J	.
=223	=223	=223
4G 4B-	8bb-L	.
.	8B-	.
2E- 2G	8c	.
.	8B-J	.
.	8AnL	.
.	8B-	.
4E- 4G	8g	.
.	8e-J	.
=224	=224	=224
2BB- 2F 2A-	8AnL	.
!	!	!LO:HP:i:t=dim.
.	8B-	>
.	8a-X	.
.	8fJ	.
2BB- 2F 2A-	8dL	.
.	8cc	.
.	8b-	.
.	8dJ	.
=225	=225	=225
1r	1e-	p
=226	=226	=226
1r	1B-	.
=227	=227	=227
1E-	4G	.
.	4r	.
.	2r	.
=228	=228	=228
!LO:TX:a:i:t=legato	!	!
1BB-	1r	.
=229	=229	=229
4GG	1e- 1g	.
4r	.	.
2r	.	.
!!LO:LB:g=original
=230	=230	=230
1r	1B- 1f	.
=231	=231	=231
1E- 1G	4G 4e-	.
.	4r	.
.	2r	.
=232	=232	=232
1BB- 1F	2r	.
.	4r	.
.	4e- 4g	pp
=233	=233	=233
4GG 4E-	1B- 1f	.
4r	.	.
4r	.	.
!	!	!LO:DY:b=2
4E- 4G	.	pp
=234	=234	=234
1BB- 1F	4G 4e-	.
.	4r	.
.	4r	.
.	4ee- 4gg	.
=235	=235	=235
4GG 4E-	1b- 1ff	.
4r	.	.
4r	.	.
*clefG2	*	*
4e- 4g	.	.
=236	=236	=236
1B- 1f	4g 4ee-	.
.	4r	.
.	4r	.
.	4eee- 4ggg	.
=237	=237	=237
4G 4e-	4r	.
4r	4eee- (4ggg	.
2r	4bb- 4fff	.
.	4gg 4eee-)	.
=238	=238	=238
4r	4gg 4eee-	.
4ee- (4gg	4r	.
4b- 4ff	2r	.
4g 4ee-)	.	.
!!LO:LB:g=original
=239	=239	=239
4g/ 4ee-/	4r	.
4r	(4e- 4g	.
2r	4B- 4f	.
.	4G) 4e-	.
*clefF4	*	*
=240	=240	=240
4r	4G 4e-	.
4E- (4G	4r	.
4BB- 4F	2r	.
4GG\ 4E-\)	.	.
*	*clefF4	*
=241	=241	=241
4r	2.F (2.B-	.
(4BB- 4D	.	.
4EE-)	.	.
4r	4E- 4G)	.
=242	=242	=242
4r	2.F (2.B-	.
(4BB- 4D	.	.
4EE-)	.	.
4r	4E- 4G)	.
=243	=243	=243
4r	2.F (2.B-	.
(4BB- 4D	.	.
4EE-)	.	.
4r	4E- 4G)	.
=244	=244	=244
4r	2.D 2.F (2.B-	<
(4BB-	.	.
4BBB-	.	.
4BB-)	4F 4A- 4d)	.
=245	=245	=245
1EE-	4G 4e-	p
.	4r	.
.	2r	.
=246	=246	=246
1DD 1EE-	1r	.
*	*clefG2	*
!!LO:LB:g=original
=247	=247	=247
1CC 1EE-	(8e-L	.
.	8f	.
.	8e-	.
.	8dJ	.
.	8e-L	.
.	8f	.
.	8g	.
.	8a-J	.
=248	=248	=248
1BBB- 1EE-	8b-L	.
.	8cc	.
.	8dd	.
.	8ee-J	.
.	8ffL	.
.	8gg	.
.	8aa-	.
.	8bb-J)	.
=249	=249	=249
*	*8va	*
!	!LO:TX:b:i:t=legato	!
*	*Xbrackettup	*
*	*tuplet	*
1AAA- 1EE-	6ccc	.
.	6ddd	.
.	6eee-	.
.	8fffL	.
.	8ggg	.
.	8aaa-	.
.	8bbb-J	.
=250	=250	=250
1GGG 1EE-	(2cccc	pp
.	4bbb-)	.
.	4r	.
=251	=251	=251
1EE-	8eee-L	.
.	8fff	.
.	8eee-	.
.	8dddJ	.
.	10eee-L	.
.	10fff	.
.	10ggg	.
.	10aaa-	.
.	10bbb-J	.
!!LO:LB:g=original
=252	=252	=252
1GGG 1EE-	(2cccc	pp
.	4bbb-)	.
.	4r	.
=253	=253	=253
1AAA- 1EE-	8eee-L	.
.	8fff	.
.	8eee-	.
.	8dddJ	.
.	10eee-L	.
.	10fff	.
.	10ggg	.
.	10aaa-	.
.	10bbb-J	.
=254	=254	=254
4GGG 4EE-	((1ccc 1cccc	.
4r	.	.
2r	.	.
=255	=255	=255
1r	4bb- 4bbb-))	.
*	*X8va	*
.	4r	.
.	2r	.
*	*clefF4	*
=256	=256	=256
4BBB- 4DD 4FF 4BB-	4F 4A- 4B- 4d	f
4r	4r	.
2r	2r	.
=257	=257	=257
4EE- 4GG 4BB- 4E-	4G 4B- 4e-	.
4r	4r	.
2r	2r	.
==	==	==
*-	*-	*-
!!!RDF**kern: > = above
!!!RDF**kern: < = below
!!!verovio: beamFrenchStyle
!!!LOR: Durand 1915, plates 9327/9328, Paul Dukas, ed.
!!!PED: Dukas, Paul
!!!URL-vhv: https://verovio.humdrum.org/?file=beethoven/sonatas/sonata26-1.krn
!!!URL-pdf: https://github.com/craigsapp/beethoven-piano-sonatas/blob/master/reference-edition/sonata26-1.pdf
!!!ENC: Craig Stuart Sapp
!!!END: 2004/08/30
!!!EED: Craig Stuart Sapp
!!!EEV: 2020/08/23
